src/topics/icons/campaignmonitor.svg

<?xml version="1.0" encoding="UTF-8" standalone="no"?>
<svg width="256px" height="175px" viewBox="0 0 256 175" version="1.1" xmlns="http://www.w3.org/2000/svg" xmlns:xlink="http://www.w3.org/1999/xlink" preserveAspectRatio="xMidYMid">
	<g fill="#2A2E32">
	    <path d="M254.229829,5.11900775 C251.140961,0.718387597 245.078326,-0.359193798 240.665798,2.73463566 L1.75330233,170.018729 C3.51156589,172.523163 6.41984496,174.173271 9.71906977,174.167318 L9.73097674,174.173271 L9.73097674,174.167318 L246.259101,174.167318 C251.635101,174.167318 255.994047,169.808372 255.994047,164.425426 L255.994047,10.5495814 C255.964279,8.67125581 255.391752,6.78102326 254.229829,5.11900775"></path>
	    <path d="M15.3282481,2.72768992 C10.9216744,-0.361178295 4.85308527,0.710449612 1.76421705,5.11106977 C0.602294574,6.77308527 0.0297674419,8.66927132 0,10.5475969 L0.00595348837,164.719132 L113.748341,71.5430698 L15.3282481,2.72768992"></path>
	</g>
</svg>

<svg height="175" preserveAspectRatio="xMidYMid" viewBox="0 0 256 175" width="256" xmlns="http://www.w3.org/2000/svg"><g fill="#2a2e32"><path d="m254.229829 5.11900775c-3.088868-4.40062015-9.151503-5.47820155-13.564031-2.38437209l-238.91249567 167.28409334c1.75826356 2.504434 4.66654263 4.154542 7.96576744 4.148589l.01190697.005953v-.005953h236.52812426c5.376 0 9.734946-4.358946 9.734946-9.741892v-153.8758446c-.029768-1.87832559-.602295-3.76855814-1.764218-5.43057365"/><path d="m15.3282481 2.72768992c-4.4065737-3.08886822-10.47516283-2.01724031-13.56403105 2.38337985-1.16192248 1.6620155-1.73444961 3.55820155-1.76421705 5.43652713l.00595349 154.1715351 113.74238751-93.1760622z"/></g></svg>
